X:170
T:Country Dance,A. (p)1665.PLFD.170
M:6/4
L:1/4
Q:3/4=80
S:Playford, Dancing Master,2nd Supp. to 3rd Ed.,1665
O:England
H:166
Z:Chris Partington
K:D
a|f2ga>ba|d2ec>AB/c/|d>cBA>GF|E2DD2:|
|:e/f/|g2gg>fe|f>gfB2b|f>gaa2^g|a3-a2e/f/|
g2ff2e|e2dd2c|Bcdd2c|d3-d2:|
